TuxGuitar/src-skins/Symbolic/TuxGuitar/edit-paste-symbolic_starred.svg

<?xml version="1.0" encoding="UTF-8" standalone="no"?>
<svg
   height="16px"
   viewBox="0 0 16 16"
   width="16px"
   version="1.1"
   id="svg4"
   sodipodi:docname="edit-paste-symbolic_starred.svg"
   inkscape:version="1.2.2 (b0a8486541, 2022-12-01)"
   xmlns:inkscape="http://www.inkscape.org/namespaces/inkscape"
   xmlns:sodipodi="http://sodipodi.sourceforge.net/DTD/sodipodi-0.dtd"
   xmlns="http://www.w3.org/2000/svg"
   xmlns:svg="http://www.w3.org/2000/svg">
  <defs
     id="defs8" />
  <sodipodi:namedview
     id="namedview6"
     pagecolor="#ffffff"
     bordercolor="#666666"
     borderopacity="1.0"
     inkscape:showpageshadow="2"
     inkscape:pageopacity="0.0"
     inkscape:pagecheckerboard="0"
     inkscape:deskcolor="#d1d1d1"
     showgrid="false"
     inkscape:zoom="52.25"
     inkscape:cx="7.9904306"
     inkscape:cy="8"
     inkscape:window-width="1920"
     inkscape:window-height="1021"
     inkscape:window-x="0"
     inkscape:window-y="0"
     inkscape:window-maximized="1"
     inkscape:current-layer="svg4" />
  <path
     id="path237"
     fill="#232629"
     style="stroke-width:0.564853"
     d="m 11.47746,7.5241177 c -0.24271,0 -0.458943,0.1544527 -0.53617,0.3861309 l -0.818595,2.4513764 -2.5925895,-0.0089 c -0.553821,-0.0021 -0.7810861,0.710521 -0.3287619,1.02825 l 2.0475938,1.443024 -0.8472803,2.420486 c -0.1787232,0.509692 0.388337,0.955397 0.8428672,0.661938 l 2.2616207,-1.465089 2.199839,1.460676 c 0.452324,0.300078 1.026004,-0.145627 0.84728,-0.655319 l -0.849487,-2.422692 2.058627,-1.456262 c 0.445704,-0.317731 0.222852,-1.02159 -0.32435,-1.023797 L 12.805749,10.335102 12.01363,7.9146158 C 11.93861,7.6829377 11.722377,7.5262799 11.47746,7.5240728 Z M 7,0 C 6.4453126,0 6,0.44531255 6,1 H 4 C 2.3554706,1 1,2.3554706 1,4 v 9 c 0,1.644529 1.3554706,3 3,3 H 6.9453874 V 14 H 4 C 3.4296886,14 3,13.570311 3,13 V 4 C 3,3.4296886 3.4296886,3 4,3 h 1 v 1 c 0,0.5546874 0.4453126,1 1,1 h 4 c 0.554687,0 1,-0.4453126 1,-1 V 3 h 1 c 0.570311,0 1,0.4296886 1,1 v 4.1088774 h 2 V 4 C 15,2.3554706 13.644529,1 12,1 H 10 C 10,0.44531255 9.5546874,0 9,0 Z"
     sodipodi:nodetypes="ccccccccccccccccccscssssccsssscsssscssccsscss" />
</svg>

<?xml version="1.0" encoding="UTF-8"?>
<svg id="svg4" width="16px" height="16px" version="1.1" viewBox="0 0 16 16" xmlns="http://www.w3.org/2000/svg">
 <path id="path237" d="m11.477 7.5241c-0.24271 0-0.45894 0.15445-0.53617 0.38613l-0.8186 2.4514-2.5926-0.0089c-0.55382-0.0021-0.78109 0.71052-0.32876 1.0282l2.0476 1.443-0.84728 2.4205c-0.17872 0.50969 0.38834 0.9554 0.84287 0.66194l2.2616-1.4651 2.1998 1.4607c0.45232 0.30008 1.026-0.14563 0.84728-0.65532l-0.84949-2.4227 2.0586-1.4563c0.4457-0.31773 0.22285-1.0216-0.32435-1.0238l-2.6323-0.008838-0.79212-2.4205c-0.07502-0.23168-0.29125-0.38834-0.53617-0.39054zm-4.4775-7.5241c-0.55469 0-1 0.44531-1 1h-2c-1.6445 0-3 1.3555-3 3v9c0 1.6445 1.3555 3 3 3h2.9454v-2h-2.9454c-0.57031 0-1-0.42969-1-1v-9c0-0.57031 0.42969-1 1-1h1v1c0 0.55469 0.44531 1 1 1h4c0.55469 0 1-0.44531 1-1v-1h1c0.57031 0 1 0.42969 1 1v4.1089h2v-4.1089c0-1.6445-1.3555-3-3-3h-2c0-0.55469-0.44531-1-1-1z" fill="#232629" stroke-width=".56485"/>
</svg>
